X: 2
T: Eileen Curran
R: reel
M: 4/4
L: 1/8
K: Fmaj
BAGF DGGB|AFcF dFcF|BAGF DGGA|BABc dgga|bga^f gdde|fdcB AF F2|BAGF DGGA|BdcA BG G2:||:G2 g2 gagf|F2 f2 fgfd|_E2 g2 E2 ga|bgaf dgga|bga^f gdde|fdcB AFFA|BAGF DGGA|B/c/d cA BG G2:|


Tune 132	Setting 12748

